!!!COM: Music21
!!!OTL: Alala de Ourense
!!!OMV: pezas_alalas_alala-de-ourense-1_alala-de-ourense-partitura.musicxml
**kern
*part1
*staff1
*I"Bagpipes
*I'Bag
*clefG^2
*k[]
*M2/4
=1
!LO:TX:a:t=Lento
*MM48
!LO:TX:a:t=[quarter]=48
4r
8ccL
8ddJ
=||
8ccL
16bL
16ccJJ
8ddL
8eeJ
=
8ffL
8ggJ
8ffL
8ggJ
=
8ffL
16eeL
16ffJJ
8ggL
8ffJ
=
16eeLL
16ff
16ee
16ddJJ
8ccL
8eeJ
=
[2dd
=
4dd]
8ccL
8ddJ
=||
8ccL
16bL
16ccJJ
8ddL
8eeJ
!!linebreak:original
=
8ffL
8ggJ
8ffL
8ggJ
=
8ffL
16eeL
16ffJJ
8ggL
8ffJ
=
16eeLL
16ff
16ee
16ddJJ
8ccL
8eeJ
=
[2ff
=
4ff]
8eeL
8ffJ
=||
8ggL
16aaL
16bbJJ
8cccL
8bbJ
!!linebreak:original
=
8ggL
8ffJ
8eeL
8ffJ
=
8ggL
16aaL
16bbJJ
8cccL
8bbJ
=
4gg
8eeL
8aaJ
=
8ggL
16aaL
16ggJJ
8ffL
16ggL
16ffJJ
=
16eeLL
16ff
16ee
16ddJJ
16ccLL
16dd
16ee
16ffJJ
=
8ggL
8eeJ
8ffL
8ddJ
=
4cc
8eeL
8ffJ
=
[2ff
=
4ff]
8eeL
8ffJ
!!linebreak:original
=||
8ggL
16aaL
16bbJJ
8cccL
8bbJ
!!linebreak:original
=
8ggL
8ffJ
8eeL
8ffJ
=
8ggL
16aaL
16bbJJ
8cccL
8bbJ
=
4gg
8eeL
8aaJ
=
8ggL
16aaL
16ggJJ
8ffL
16ggL
16ffJJ
=
16eeLL
16ff
16ee
16ddJJ
16ccLL
16dd
16ee
16ffJJ
=
8ggL
8eeJ
8ffL
8ddJ
=
4cc
8ccL
8ddJ
==
*-
!!!system-decoration: s1,s2
